X: 32877
T: Portobello
R: hornpipe
M: 4/4
K: Gmajor
|:(3DEF|"G"G2 GA G2 de|dcBA GABG|"Am"A2 AB A2 GA|BABG "C"E2 (3DEF|
"G"G2 GA G2 de|dcBA GABd|"G"ecdB "Am"cA"G"BG|"D"AGFA "G"G2:|
|:Bc|"G"d2 de d2 ef|gfed "Em"e3 f|"C"edcB "Am"cBAG|"D"FGAF D3 B|
"C"c2 ec "G"B2 dB|"Am"AB (3cBA "G"GABd|"C"ecdB "Am"cA"G"BG|"D"AG (3FGA "G"G2:|

